X:094
U: ~ = !turn!
%%topmargin 3cm
T:Jacket Green
T:(Song)
B:Traditional Irish Fiddle Tunes. Randy Miller and Jack Perron.
Z:Transcribed by Ralph Palmer
S:Mary O'Hara
R:Song
L:1/8
M:C
K:D
d2 dc B2 AF | E2 ED B,C DE | F2 F2 E2 E2 | D6 A2 |
A3 F A2 Bc | d3 c B3 A | Bc BA FE FA | B6 A2 |
A3 F A2 Bc | d3 c B3 A | Bc BA FE FA | B6 cc |
d3 c B2 AF | E2 ED B,C DE | F2 FF E (EE2) | D8 |]
